components/AppDevelopmentCommon/Svg/svgs/uxDesign2.svg

<svg width="40" height="40" viewBox="0 0 40 40" fill="none" xmlns="http://www.w3.org/2000/svg">
<g clip-path="url(#clip0_5535_15286)">
<path d="M3.09099 8.0626C3.2452 8.0626 3.39706 7.99998 3.50586 7.89039C3.61545 7.78158 3.67807 7.62972 3.67807 7.47551C3.67807 7.32131 3.61545 7.16945 3.50586 7.06064C3.39706 6.95105 3.24598 6.88843 3.09099 6.88843C2.936 6.88843 2.78492 6.95105 2.67612 7.06064C2.56653 7.16945 2.50391 7.32131 2.50391 7.47551C2.50391 7.62972 2.56653 7.78158 2.67612 7.89039C2.78492 7.99998 2.93678 8.0626 3.09099 8.0626Z" fill="#161616"/>
<path d="M4.9699 8.0626C5.12489 8.0626 5.27596 7.99998 5.38477 7.89039C5.49436 7.78158 5.55698 7.62972 5.55698 7.47551C5.55698 7.32131 5.49436 7.16945 5.38477 7.06064C5.27596 6.95105 5.1241 6.88843 4.9699 6.88843C4.81569 6.88843 4.66383 6.95105 4.55502 7.06064C4.44543 7.16945 4.38281 7.32131 4.38281 7.47551C4.38281 7.62972 4.44543 7.78158 4.55502 7.89039C4.66383 7.99998 4.81569 8.0626 4.9699 8.0626Z" fill="#161616"/>
<path d="M6.8488 8.0626C7.00301 8.0626 7.15487 7.99998 7.26368 7.89039C7.37327 7.78158 7.43589 7.62972 7.43589 7.47551C7.43589 7.32131 7.37327 7.16945 7.26368 7.06064C7.15487 6.95105 7.00301 6.88843 6.8488 6.88843C6.6946 6.88843 6.54274 6.95105 6.43393 7.06064C6.32434 7.16945 6.26172 7.32131 6.26172 7.47551C6.26172 7.62972 6.32434 7.78158 6.43393 7.89039C6.54274 7.99998 6.6946 8.0626 6.8488 8.0626Z" fill="#161616"/>
<path d="M34.4036 13.0506H23.1316C22.0824 13.0506 21.2253 13.8878 21.193 14.9293H20.6267C19.5571 14.9293 18.6872 15.7993 18.6872 16.8688V21.8178H17.5564V20C17.5564 18.9304 16.6865 18.0604 15.6169 18.0604H5.59734C4.52779 18.0604 3.65781 18.9304 3.65781 20V25.0097C3.65781 26.0793 4.52779 26.9493 5.59734 26.9493H15.6169C16.6865 26.9493 17.5564 26.0793 17.5564 25.0097V23.1919H18.6872V28.1409C18.6872 29.2104 19.5571 30.0804 20.6267 30.0804H21.193C21.2253 31.1219 22.0824 31.9591 23.1316 31.9591H34.4036C35.4732 31.9591 36.3431 31.0891 36.3431 30.0195V28.7671C36.3431 27.6975 35.4732 26.8275 34.4036 26.8275H23.1316C22.0824 26.8275 21.2253 27.6647 21.193 28.7062H20.6267C20.315 28.7062 20.0613 28.4525 20.0613 28.1409V23.1919H21.193C21.2253 24.2334 22.0824 25.0706 23.1316 25.0706H34.4036C35.4732 25.0706 36.3431 24.2006 36.3431 23.1311V21.8786C36.3431 20.8091 35.4732 19.9391 34.4036 19.9391H23.1316C22.0824 19.9391 21.2253 20.7763 21.193 21.8178H20.0613V16.8688C20.0613 16.5572 20.315 16.3035 20.6267 16.3035H21.193C21.2253 17.345 22.0824 18.1821 23.1316 18.1821H34.4036C35.4732 18.1821 36.3431 17.3122 36.3431 16.2426V14.9902C36.3431 13.9206 35.4732 13.0506 34.4036 13.0506ZM16.1823 25.0097C16.1823 25.3214 15.9286 25.5751 15.6169 25.5751H5.59734C5.28568 25.5751 5.03198 25.3214 5.03198 25.0097V20C5.03198 19.6883 5.28568 19.4346 5.59734 19.4346H15.6169C15.9286 19.4346 16.1823 19.6883 16.1823 20V25.0097ZM22.5662 28.7671C22.5662 28.4554 22.8199 28.2017 23.1316 28.2017H34.4036C34.7153 28.2017 34.969 28.4554 34.969 28.7671V30.0195C34.969 30.3312 34.7153 30.5849 34.4036 30.5849H23.1316C22.8199 30.5849 22.5662 30.3312 22.5662 30.0195V28.7671ZM22.5662 21.8786C22.5662 21.567 22.8199 21.3133 23.1316 21.3133H34.4036C34.7153 21.3133 34.969 21.567 34.969 21.8786V23.1311C34.969 23.4427 34.7153 23.6964 34.4036 23.6964H23.1316C22.8199 23.6964 22.5662 23.4427 22.5662 23.1311V21.8786ZM34.969 16.2426C34.969 16.5543 34.7153 16.808 34.4036 16.808H23.1316C22.8199 16.808 22.5662 16.5543 22.5662 16.2426V14.9902C22.5662 14.6785 22.8199 14.4248 23.1316 14.4248H34.4036C34.7153 14.4248 34.969 14.6785 34.969 14.9902V16.2426Z" fill="#161616" stroke="#161616" stroke-width="0.2"/>
<path d="M36.908 4.28354H3.09198C1.33186 4.28354 -0.1 5.7154 -0.1 7.47552V32.5244C-0.1 34.2846 1.33186 35.7164 3.09198 35.7164H36.908C38.6681 35.7164 40.1 34.2846 40.1 32.5244V7.47552C40.1 5.7154 38.6681 4.28354 36.908 4.28354ZM3.09198 5.65771H36.908C37.9103 5.65771 38.7258 6.47329 38.7258 7.47552V9.29333H1.27417V7.47552C1.27417 6.47329 2.08975 5.65771 3.09198 5.65771ZM36.908 34.3423H3.09198C2.08975 34.3423 1.27417 33.5267 1.27417 32.5244V10.6675H38.7258V32.5244C38.7258 33.5267 37.9103 34.3423 36.908 34.3423Z" fill="#161616" stroke="#161616" stroke-width="0.2"/>
</g>
<defs>
<clipPath id="clip0_5535_15286">
<rect width="40" height="40" fill="white"/>
</clipPath>
</defs>
</svg>

<svg xmlns="http://www.w3.org/2000/svg" width="40" height="40" fill="none">
  <g fill="#161616" clip-path="url(#a)">
    <path d="M3.091 8.063a.59.59 0 0 0 .587-.587.59.59 0 0 0-.587-.588.588.588 0 0 0 0 1.175ZM4.97 8.063a.588.588 0 1 0-.002-1.176.588.588 0 0 0 .002 1.176ZM6.849 8.063a.59.59 0 0 0 .587-.587.59.59 0 0 0-.587-.588.59.59 0 0 0-.587.588.59.59 0 0 0 .587.587Z" />
    <path stroke="#161616" stroke-width=".2" d="M34.404 13.05H23.132c-1.05 0-1.907.838-1.939 1.88h-.566c-1.07 0-1.94.87-1.94 1.939v4.949h-1.13V20c0-1.07-.87-1.94-1.94-1.94H5.597c-1.07 0-1.94.87-1.94 1.94v5.01c0 1.07.87 1.94 1.94 1.94h10.02c1.07 0 1.94-.87 1.94-1.94v-1.818h1.13v4.949c0 1.07.87 1.94 1.94 1.94h.566a1.942 1.942 0 0 0 1.939 1.878h11.272c1.07 0 1.94-.87 1.94-1.94v-1.252c0-1.07-.87-1.94-1.94-1.94H23.132c-1.05 0-1.907.838-1.939 1.88h-.566a.566.566 0 0 1-.566-.566v-4.95h1.132a1.942 1.942 0 0 0 1.939 1.88h11.272c1.07 0 1.94-.87 1.94-1.94V21.88c0-1.07-.87-1.94-1.94-1.94H23.132c-1.05 0-1.907.837-1.939 1.879h-1.132v-4.95c0-.31.254-.564.566-.564h.566a1.942 1.942 0 0 0 1.939 1.878h11.272c1.07 0 1.94-.87 1.94-1.94V14.99c0-1.07-.87-1.94-1.94-1.94ZM16.182 25.01a.566.566 0 0 1-.565.565H5.597a.566.566 0 0 1-.565-.565V20c0-.312.254-.565.565-.565h10.02c.312 0 .565.253.565.565v5.01Zm6.384 3.757c0-.312.254-.565.566-.565h11.272c.311 0 .565.253.565.565v1.253a.566.566 0 0 1-.565.565H23.132a.566.566 0 0 1-.566-.566v-1.252Zm0-6.888c0-.312.254-.566.566-.566h11.272c.311 0 .565.254.565.566v1.252a.566.566 0 0 1-.565.565H23.132a.566.566 0 0 1-.566-.565V21.88Zm12.403-5.636a.566.566 0 0 1-.565.565H23.132a.566.566 0 0 1-.566-.565V14.99c0-.312.254-.565.566-.565h11.272c.311 0 .565.253.565.565v1.253Z" />
    <path stroke="#161616" stroke-width=".2" d="M36.908 4.284H3.092A3.196 3.196 0 0 0-.1 7.476v25.048a3.195 3.195 0 0 0 3.192 3.192h33.816a3.196 3.196 0 0 0 3.192-3.192V7.476a3.196 3.196 0 0 0-3.192-3.192ZM3.092 5.658h33.816a1.82 1.82 0 0 1 1.818 1.818v1.817H1.274V7.476a1.82 1.82 0 0 1 1.818-1.818Zm33.816 28.684H3.092a1.82 1.82 0 0 1-1.818-1.818V10.667h37.452v21.857a1.82 1.82 0 0 1-1.818 1.818Z" />
  </g>
  <defs>
    <clipPath id="a">
      <path fill="#fff" d="M0 0h40v40H0z" />
    </clipPath>
  </defs>
</svg>
